X:2
T:Graeme of Old Birkwood
C:Ryan Canning
L:1/8
R:Jig
M:6/8
K:D
[| {g}A2 {d}A {g}ABd | {g}de{A}e {gef}e2 d | {gef}edB {gf}g2 a | e{g}e{A}e {g}deg |
{AGAG}A2 {d}A {g}ABd | {g}de{A}e {gef}e2 d | {gef}edB {gf}g2 G | {g}B{d}A{e}A {gAGAG}A2 e |
{AGAG}A2 {d}A {g}ABd | {g}de{A}e {gef}edB | {gef}edB {gf}g2 a |  e{g}e{A}e {g}deg |
{AGAG}A2 {d}A {g}ABd | {g}de{A}e {gef}e2 d | {gef}edB {gf}g2 G | {g}B{d}A{e}A {gAGAG}A2 f||
{a}ge{A}e {g}efg | age {geA}e2 f | {g}d{e}d{A}d {g}Bdg | {a}edB {gBd}B2 f |
{a}ge{A}e {g}efg | age {g}efg |{a}edB {gf}g2 G | {g}B{d}A{e}A {gAGAG}A2 f|
{a}ge{A}e {g}efg | age {geA}e2 f | {g}d{e}d{A}d {g}Bdg | {a}edB {gef}edB |
{g}A{d}A{e}A {g}ABd | {g}de{A}e {gef}e2 d | {gef}edB {gf}g2 G | {g}B{d}A{e}A {gAGAG}A3 |]

